icons/folder-features-open.svg

<svg viewBox="0 0 32 32" fill="none" xmlns="http://www.w3.org/2000/svg">
<path d="M28.067 12H9.19362C8.78771 11.9999 8.39206 12.132 8.06276 12.3775C7.73347 12.6231 7.48724 12.9696 7.35897 13.368L3.93325 24V10H27.1322C27.1322 9.46957 26.9286 8.96086 26.566 8.58579C26.2034 8.21071 25.7117 8 25.199 8H14.686C14.2338 7.99979 13.796 7.8356 13.4487 7.536L12.2037 6.464C11.8564 6.1644 11.4186 6.00021 10.9664 6H3.93325C3.42052 6 2.92879 6.21071 2.56624 6.58579C2.20368 6.96086 2 7.46957 2 8V24C2 24.5304 2.20368 25.0391 2.56624 25.4142C2.92879 25.7893 3.42052 26 3.93325 26H25.199L29.8436 14.788C29.9697 14.4838 30.0208 14.152 29.9924 13.8224C29.9639 13.4927 29.8569 13.1755 29.6808 12.8992C29.5047 12.6229 29.2651 12.3961 28.9834 12.2391C28.7018 12.0822 28.3869 12 28.067 12Z" fill="#689F38"/>
<path d="M27.5869 13.584L29.7188 14.0928L23.6885 20.123L20.9883 17.4229L19.5332 18.877L23.6885 23.0322L30.1738 16.5469L30.1133 17.2383L32 19.4951L30.1152 21.7539L30.377 24.7422L27.5869 25.4082L26.127 27.9912L23.5 26.8066L20.873 28L19.4131 25.417L16.623 24.75L16.8848 21.7539L15 19.4951L16.8848 17.2295L16.623 14.2412L19.4131 13.584L20.873 11L23.5 12.1846L26.127 11L27.5869 13.584ZM32 14.7217L30.1738 16.5469L30.377 14.25L29.7188 14.0928L30.5459 13.2666L32 14.7217Z" fill="#DCEDC8"/>
</svg>

<svg xmlns="http://www.w3.org/2000/svg" fill="none" viewBox="0 0 32 32"><path fill="#689f38" d="M28.067 12H9.194a1.9 1.9 0 0 0-1.131.377c-.33.246-.576.593-.704.991L3.933 24V10h23.2c0-.53-.204-1.04-.567-1.414A1.9 1.9 0 0 0 25.199 8H14.686a1.9 1.9 0 0 1-1.237-.464l-1.245-1.072A1.9 1.9 0 0 0 10.966 6H3.933a1.9 1.9 0 0 0-1.367.586A2.04 2.04 0 0 0 2 8v16c0 .53.204 1.04.566 1.414.363.375.855.586 1.367.586H25.2l4.645-11.212a2.06 2.06 0 0 0-.163-1.889 1.96 1.96 0 0 0-.698-.66 1.9 1.9 0 0 0-.916-.239"/><path fill="#dcedc8" d="m27.587 13.584 2.132.509-6.03 6.03-2.7-2.7-1.456 1.454 4.156 4.155 6.485-6.485-.06.691L32 19.495l-1.885 2.259.262 2.988-2.79.666-1.46 2.583-2.627-1.184L20.873 28l-1.46-2.583-2.79-.667.262-2.996L15 19.495l1.885-2.265-.262-2.989 2.79-.657L20.873 11l2.627 1.185L26.127 11zM32 14.722l-1.826 1.825.203-2.297-.658-.157.827-.826z"/></svg>
